Pods/ProtonCore-UIFoundations/libraries/UIFoundations/Sources/Assets.xcassets/Images/IconSet/ic-brand-android.imageset/ic-brand-android.svg

<svg width="24" height="24" viewBox="0 0 24 24" fill="none" xmlns="http://www.w3.org/2000/svg">
<path fill-rule="evenodd" clip-rule="evenodd" d="M16.8043 14.1449C16.4551 14.2048 16.1041 14.0486 15.9102 13.747C15.7163 13.4453 15.7163 13.0555 15.9102 12.7539C16.1041 12.4523 16.4551 12.2961 16.8043 12.3559C17.2335 12.4295 17.5478 12.8076 17.5478 13.2504C17.5478 13.6933 17.2335 14.0714 16.8043 14.1449ZM7.24535 14.145C6.88255 14.1448 6.55601 13.921 6.4196 13.5789C6.28319 13.2369 6.36412 12.8448 6.62425 12.5875C6.88438 12.3301 7.27182 12.2589 7.60403 12.4073C7.93624 12.5556 8.14694 12.8941 8.13686 13.2631C8.12345 13.7542 7.72821 14.1452 7.24535 14.145ZM17.1509 9.5084L18.7606 6.48468C18.8047 6.40816 18.8165 6.31669 18.7932 6.2312C18.7698 6.14571 18.7134 6.07352 18.6368 6.03112C18.4722 5.95576 18.2783 6.02153 18.191 6.18231L16.5318 9.23122C15.1121 8.56126 13.565 8.21717 12 8.22332C10.4332 8.22649 8.88324 8.5522 7.4434 9.18083L5.80896 6.13191C5.68007 6.02184 5.4921 6.02184 5.36321 6.13191C5.28819 6.16917 5.23204 6.23682 5.20848 6.31831C5.18493 6.3998 5.19614 6.48762 5.23939 6.56027L6.84906 9.58399C3.66192 11.1535 1.59935 14.3987 1.5 18H22.5C22.4467 14.3529 20.3771 11.048 17.1509 9.458" fill="#0C0C14"/>
</svg>

<svg xmlns="http://www.w3.org/2000/svg" width="24" height="24" viewBox="0 0 24 24">
  <g class="ic-brand-android">
    <path fill-rule="evenodd" d="M16.804 14.145a.885.885 0 0 1-.894-.398.92.92 0 0 1 0-.993.885.885 0 0 1 .894-.398c.43.074.744.452.744.894a.903.903 0 0 1-.744.895Zm-9.559 0a.892.892 0 0 1-.825-.566.918.918 0 0 1 .204-.992.88.88 0 0 1 .98-.18.908.908 0 0 1 .533.856.899.899 0 0 1-.892.882Zm9.906-4.637 1.61-3.023a.333.333 0 0 0-.124-.454.344.344 0 0 0-.446.151l-1.66 3.05A10.519 10.519 0 0 0 12 8.222a11.443 11.443 0 0 0-4.557.958L5.81 6.13a.342.342 0 0 0-.446 0 .307.307 0 0 0-.124.428l1.61 3.025C3.662 11.154 1.6 14.399 1.5 18h21c-.053-3.647-2.123-6.952-5.35-8.542" class="Icon"/>
  </g>
</svg>
